static/assets/images/exchanges/coinex.svg

<svg width="244" height="256" viewBox="0 0 244 256" fill="none" xmlns="http://www.w3.org/2000/svg">
<path d="M163.202 94.5903C143.701 75.1722 112.703 75.1722 93.4057 94.5903C74.108 114.221 74.3138 146.166 93.6115 165.793C112.906 185.424 144.315 185.629 163.613 166.002C163.941 165.668 165.298 164.154 167.68 161.455L144.412 137.759C143.162 139.251 141.898 140.731 140.621 142.2C139.071 143.787 137.219 145.048 135.174 145.909C133.129 146.769 130.932 147.213 128.714 147.213C126.495 147.213 124.298 146.769 122.253 145.909C120.209 145.048 118.356 143.787 116.806 142.2C110.237 135.516 110.237 124.659 116.604 118.186C122.966 111.714 133.644 111.714 140.21 118.395L202.437 181.644C185.396 206.699 156.839 222.589 126.043 222.589C75.1336 222.589 33.667 180.201 33.667 128.002C33.667 75.7989 75.1336 33.4113 126.047 33.4113C155.813 33.4113 183.117 48.0279 200.154 71.6241C197.408 74.8637 190.396 83.0012 179.114 96.0237L202.074 119.311L240.184 75.59C220.478 30.0689 175.931 0 126.043 0C56.868 0 0.820312 57.422 0.820312 128.002C0.820312 198.578 56.8616 256 126.047 256C157.456 256 183.525 245.976 208.983 223.842C232.181 203.797 243.084 176.004 243.084 176.004L163.202 94.5903Z" fill="url(#paint0_linear_10243_746)"/>
<defs>
<linearGradient id="paint0_linear_10243_746" x1="243.084" y1="128.002" x2="0.820312" y2="128.002" gradientUnits="userSpaceOnUse">
<stop stop-color="#22E6B8"/>
<stop offset="1" stop-color="#00C1CE"/>
</linearGradient>
</defs>
</svg>

<svg xmlns="http://www.w3.org/2000/svg" fill="none" viewBox="0 0 244 256"><path fill="url(#paint0_linear_10243_746)" d="M163.202 94.59c-19.501-19.418-50.499-19.418-69.796 0-19.298 19.631-19.092 51.576.206 71.203 19.294 19.631 50.703 19.836 70.001.209q.493-.5 4.067-4.547l-23.268-23.696a320 320 0 0 1-3.791 4.441 16.64 16.64 0 0 1-11.907 5.013 16.65 16.65 0 0 1-11.908-5.013c-6.569-6.684-6.569-17.541-.202-24.014 6.362-6.472 17.04-6.472 23.606.209l62.227 63.249c-17.041 25.055-45.598 40.945-76.394 40.945-50.91 0-92.376-42.388-92.376-94.587 0-52.203 41.467-94.59 92.38-94.59 29.766 0 57.07 14.616 74.107 38.212-2.746 3.24-9.758 11.377-21.04 24.4l22.96 23.287 38.11-43.721C220.478 30.069 175.931 0 126.043 0 56.868 0 .82 57.422.82 128.002.82 198.578 56.862 256 126.047 256c31.409 0 57.478-10.024 82.936-32.158 23.198-20.045 34.101-47.838 34.101-47.838z"/><defs><linearGradient id="paint0_linear_10243_746" x1="243.084" x2=".82" y1="128.002" y2="128.002" gradientUnits="userSpaceOnUse"><stop stop-color="#22E6B8"/><stop offset="1" stop-color="#00C1CE"/></linearGradient></defs></svg>
